X: 4
T: Carolan's Fancy
R: jig
M: 6/8
L: 1/8
K: Edor
Bee Bcd | ABG FED | GFG AGA | B2 A Bcd |Bee Bcd | ABG FEF | DFA dAF | EFE E2A:|BEF G2A | BAG FED | BEF G2A | B2A Bed |BEF G2A | BAG FEF | DFA dAF | EFE E2A:|


Tune 1433	Setting 14810

